Komodo/status/scalable/user-idle-symbolic.svg

<?xml version="1.0" encoding="UTF-8" standalone="no"?>
<!-- Created with Inkscape (http://www.inkscape.org/) -->

<svg
   xmlns:dc="http://purl.org/dc/elements/1.1/"
   xmlns:cc="http://creativecommons.org/ns#"
   xmlns:rdf="http://www.w3.org/1999/02/22-rdf-syntax-ns#"
   xmlns:svg="http://www.w3.org/2000/svg"
   xmlns="http://www.w3.org/2000/svg"
   xmlns:sodipodi="http://sodipodi.sourceforge.net/DTD/sodipodi-0.dtd"
   xmlns:inkscape="http://www.inkscape.org/namespaces/inkscape"
   width="16"
   height="16"
   id="svg2"
   sodipodi:version="0.32"
   inkscape:version="0.48.1 r9760"
   version="1.0"
   sodipodi:docname="user-idle-symbolic.svg"
   inkscape:output_extension="org.inkscape.output.svg.inkscape">
  <defs
     id="defs4">
    <linearGradient
       id="StandardGradient"
       gradientTransform="scale(1.1389662,0.8779892)"
       x1="6.4706173"
       y1="7.6491265"
       x2="6.4706173"
       y2="18.248226"
       gradientUnits="userSpaceOnUse">
      <stop
         style="stop-color:#000000;stop-opacity:0.86274511;"
         offset="0"
         id="stop3283" />
      <stop
         style="stop-color:#000000;stop-opacity:0.47058824;"
         offset="1"
         id="stop3285" />
    </linearGradient>
  </defs>
  <sodipodi:namedview
     id="base"
     pagecolor="#ffffff"
     bordercolor="#9a9a9a"
     borderopacity="1"
     inkscape:pageopacity="0.0"
     inkscape:pageshadow="2"
     inkscape:zoom="22.762856"
     inkscape:cx="2.5079438"
     inkscape:cy="6.0094766"
     inkscape:document-units="px"
     inkscape:current-layer="layer3"
     showgrid="true"
     inkscape:showpageshadow="false"
     showguides="true"
     inkscape:guide-bbox="true"
     inkscape:window-width="1920"
     inkscape:window-height="1028"
     inkscape:window-x="0"
     inkscape:window-y="25"
     inkscape:window-maximized="1">
    <sodipodi:guide
       orientation="1,0"
       position="0,112"
       id="guide2383" />
    <sodipodi:guide
       orientation="0,1"
       position="26.278146,128"
       id="guide2385" />
    <sodipodi:guide
       orientation="1,0"
       position="128,54.082119"
       id="guide2387" />
    <sodipodi:guide
       orientation="0,1"
       position="78.156291,0"
       id="guide2389" />
    <inkscape:grid
       type="xygrid"
       id="grid3672"
       visible="true"
       enabled="true" />
  </sodipodi:namedview>
  <metadata
     id="metadata7">
    <rdf:RDF>
      <cc:Work
         rdf:about="">
        <dc:format>image/svg+xml</dc:format>
        <dc:type
           rdf:resource="http://purl.org/dc/dcmitype/StillImage" />
      </cc:Work>
    </rdf:RDF>
  </metadata>
  <g
     inkscape:groupmode="layer"
     id="layer3"
     inkscape:label="Cross"
     style="display:inline"
     transform="translate(-0.4642613,-2.999982)">
    <path
       sodipodi:type="arc"
       style="opacity:0.45;fill:#bebebe;stroke:none;fill-opacity:1"
       id="path2863"
       sodipodi:cx="8"
       sodipodi:cy="8"
       sodipodi:rx="5"
       sodipodi:ry="4"
       d="m 13,8 c 0,2.209139 -2.238576,4 -5,4 C 5.2385763,12 3,10.209139 3,8 3,5.790861 5.2385763,4 8,4 c 0,0 10e-8,0 10e-8,0 L 8,8 z"
       transform="translate(0.4642613,2.999982)"
       sodipodi:start="0"
       sodipodi:end="4.712389" />
    <path
       style="fill:#bebebe;fill-opacity:1;stroke:none;display:inline;opacity:1"
       d="M 8 2 C 4.1340071 2 1 4.4101491 1 8 C 1 11.589851 4.1340071 14 8 14 C 9.064957 14 10.065093 13.770035 10.96875 13.375 L 15 15 L 13.5625 11.4375 C 14.465672 10.342799 15 9.485565 15 8 C 15 4.4101491 11.865993 2 8 2 z M 8 4 C 10.761424 4 13 5.7908611 13 8 C 13 10.209139 10.761424 12 8 12 C 5.2385763 12 3 10.209139 3 8 C 3 5.7908611 5.2385763 4 8 4 z "
       transform="translate(0.4642613,2.999982)"
       id="path2892" />
  </g>
</svg>

<?xml version="1.0" encoding="UTF-8" standalone="no"?>
<!-- Created with Inkscape (http://www.inkscape.org/) -->
<svg id="svg2" xmlns:rdf="http://www.w3.org/1999/02/22-rdf-syntax-ns#" xmlns="http://www.w3.org/2000/svg" height="16" width="16" version="1.0" xmlns:cc="http://creativecommons.org/ns#" xmlns:dc="http://purl.org/dc/elements/1.1/">
 <metadata id="metadata7">
  <rdf:RDF>
   <cc:Work rdf:about="">
    <dc:format>image/svg+xml</dc:format>
    <dc:type rdf:resource="http://purl.org/dc/dcmitype/StillImage"/>
   </cc:Work>
  </rdf:RDF>
 </metadata>
 <g id="layer3" transform="translate(-.46426 -3)">
  <path id="path2863" style="opacity:.45;fill:#bebebe" d="m13 8c0 2.2091-2.2386 4-5 4s-5-1.791-5-4c0-2.2091 2.2386-4 5-4h1e-7v4z" transform="translate(.46426 3)"/>
  <path id="path2892" style="fill:#bebebe" d="m8 2c-3.866 0-7 2.4101-7 6 0 3.59 3.134 6 7 6 1.065 0 2.065-0.23 2.969-0.625l4.031 1.625-1.438-3.562c0.904-1.095 1.438-1.9524 1.438-3.438 0-3.5899-3.134-6-7-6zm0 2c2.761 0 5 1.7909 5 4 0 2.209-2.239 4-5 4-2.7614 0-5-1.791-5-4 0-2.2091 2.2386-4 5-4z" transform="translate(.46426 3)"/>
 </g>
</svg>
